svg/emoji_u1f4fa.svg

<svg width="128" height="128" viewBox="0 0 128 128" fill="none" xmlns="http://www.w3.org/2000/svg">
<path d="M60.64 41.0997L38.95 13.8797C38.65 13.4997 38.7 12.9497 39.06 12.6297C39.44 12.2997 40.01 12.3297 40.34 12.7097L63.41 38.6997C63.74 39.0797 63.71 39.6497 63.33 39.9797L61.95 41.1997C61.56 41.5497 60.96 41.4997 60.64 41.0997Z" fill="#455A64" style="fill:#455A64;fill:color(display-p3 0.2706 0.3529 0.3922);fill-opacity:1;"/>
<path d="M66.21 40.9498L64.97 39.8498C64.56 39.4798 64.52 38.8498 64.89 38.4398L87.83 12.5798C88.2 12.1698 88.83 12.1298 89.24 12.4998C89.64 12.8498 89.69 13.4598 89.36 13.8798L67.66 40.8398C67.29 41.2698 66.63 41.3298 66.21 40.9498Z" fill="#455A64" style="fill:#455A64;fill:color(display-p3 0.2706 0.3529 0.3922);fill-opacity:1;"/>
<path d="M47.74 42.4599C47.74 38.9699 55.48 36.1299 65.03 36.1299C74.58 36.1299 82.32 38.9599 82.32 42.4599H47.74Z" fill="#455A64" style="fill:#455A64;fill:color(display-p3 0.2706 0.3529 0.3922);fill-opacity:1;"/>
<path d="M119.57 124H8.43C5.98 124 4 121.94 4 119.41V45.0998C4 42.5598 5.98 40.5098 8.43 40.5098H119.58C122.02 40.5098 124.01 42.5698 124.01 45.0998V119.41C124 121.94 122.02 124 119.57 124Z" fill="#948581" style="fill:#948581;fill:color(display-p3 0.5804 0.5216 0.5059);fill-opacity:1;"/>
<path d="M116.35 119.64H11.97C10.01 119.64 8.42004 118.05 8.42004 116.09V48.0397C8.42004 46.0797 10.01 44.4897 11.97 44.4897H116.35C118.31 44.4897 119.9 46.0797 119.9 48.0397V116.09C119.9 118.05 118.31 119.64 116.35 119.64Z" fill="#443A38" style="fill:#443A38;fill:color(display-p3 0.2667 0.2289 0.2189);fill-opacity:1;"/>
<path d="M15.39 108.96L10.59 116.51C9.75002 117.83 10.65 119.62 12.21 119.63C12.23 119.63 12.25 119.63 12.27 119.63C14.4 119.63 92.51 119.63 94.99 119.63H95.06C96.83 119.62 97.98 117.76 97.21 116.17L94.21 109.99L15.39 108.96Z" fill="#AF9D98" style="fill:#AF9D98;fill:color(display-p3 0.6875 0.6151 0.5958);fill-opacity:1;"/>
<path d="M95.45 105.47C94.68 108.94 92.11 111.62 88.81 112.35C83.39 113.56 73.29 115.07 56.65 115.07C39.18 115.07 27.46 113.41 21.15 112.18C17.66 111.5 14.92 108.64 14.24 104.95C12.67 96.4697 10.7 79.5197 14.32 58.3497C14.99 54.4297 17.98 51.4197 21.71 50.9097C28.44 49.9797 40.46 48.7397 56.65 48.7397C72.01 48.7397 82.3 49.8597 88.13 50.7597C91.72 51.3197 94.59 54.2297 95.32 57.9997C99.65 80.2997 97.26 97.2897 95.45 105.47Z" fill="#2F7889" stroke="#443A38" style="fill:#2F7889;fill:color(display-p3 0.1843 0.4706 0.5373);fill-opacity:1;stroke:#443A38;stroke:color(display-p3 0.2667 0.2275 0.2196);stroke-opacity:1;" stroke-width="4" stroke-miterlimit="10"/>
<path d="M114.89 116.47H103.5C102.34 116.47 101.41 115.53 101.41 114.38V90.63C101.41 89.47 102.35 88.54 103.5 88.54H114.89C116.05 88.54 116.98 89.48 116.98 90.63V114.38C116.98 115.53 116.05 116.47 114.89 116.47Z" fill="#695C59" style="fill:#695C59;fill:color(display-p3 0.4118 0.3608 0.3490);fill-opacity:1;"/>
<path d="M109.2 65.1999C113.005 65.1999 116.09 62.1152 116.09 58.3099C116.09 54.5047 113.005 51.4199 109.2 51.4199C105.395 51.4199 102.31 54.5047 102.31 58.3099C102.31 62.1152 105.395 65.1999 109.2 65.1999Z" fill="#948581" fill-opacity="0.46" style="fill:#948581;fill:color(display-p3 0.5804 0.5216 0.5059);fill-opacity:0.46;"/>
<path d="M109.2 51.98C108.67 51.98 108.21 52.34 108.09 52.85L107.19 56.55C106.91 57.7 106.91 58.9 107.19 60.06L108.09 63.76C108.22 64.27 108.67 64.63 109.2 64.63C109.73 64.63 110.19 64.27 110.31 63.76L111.21 60.06C111.49 58.91 111.49 57.71 111.21 56.55L110.31 52.85C110.18 52.34 109.72 51.98 109.2 51.98Z" fill="#948581" style="fill:#948581;fill:color(display-p3 0.5804 0.5216 0.5059);fill-opacity:1;"/>
<path d="M109.2 83.01C113.005 83.01 116.09 79.9252 116.09 76.12C116.09 72.3147 113.005 69.23 109.2 69.23C105.395 69.23 102.31 72.3147 102.31 76.12C102.31 79.9252 105.395 83.01 109.2 83.01Z" fill="#948581" fill-opacity="0.46" style="fill:#948581;fill:color(display-p3 0.5804 0.5216 0.5059);fill-opacity:0.46;"/>
<path d="M104.33 72.0798C103.99 72.4898 103.98 73.0698 104.29 73.4898L106.56 76.5398C107.27 77.4898 108.19 78.2598 109.26 78.7798L112.68 80.4398C113.15 80.6698 113.72 80.5498 114.06 80.1398C114.4 79.7298 114.41 79.1498 114.1 78.7298L111.83 75.6798C111.12 74.7298 110.2 73.9598 109.13 73.4398L105.71 71.7798C105.24 71.5498 104.67 71.6798 104.33 72.0798Z" fill="#948581" style="fill:#948581;fill:color(display-p3 0.5804 0.5216 0.5059);fill-opacity:1;"/>
<path d="M31.08 55.7798C32.76 55.5798 35.94 55.7198 37.06 59.1298C38.18 62.5398 35.72 63.4598 34.4 64.4698C30.61 67.3598 28.73 68.4598 26.45 71.6098C24.63 74.1298 21.45 73.3398 20.5 71.6798C19.74 70.3398 19.18 66.0398 20.79 63.1998C24.26 57.1198 29.4 55.9798 31.08 55.7798Z" fill="url(#paint0_linear_2339_2)" style=""/>
<defs>
<linearGradient id="paint0_linear_2339_2" x1="29.3551" y1="35.1455" x2="28.3104" y2="73.0553" gradientUnits="userSpaceOnUse">
<stop stop-color="white" style="stop-color:white;stop-opacity:1;"/>
<stop offset="1" stop-color="white" stop-opacity="0" style="stop-color:none;stop-opacity:0;"/>
</linearGradient>
</defs>
</svg>

<?xml version="1.0" encoding="utf-8"?>
<!-- Generator: Adobe Illustrator 25.2.3, SVG Export Plug-In . SVG Version: 6.00 Build 0)  -->
<svg version="1.1" id="Layer_3" xmlns="http://www.w3.org/2000/svg" xmlns:xlink="http://www.w3.org/1999/xlink" x="0px" y="0px"
	 viewBox="0 0 128 128" style="enable-background:new 0 0 128 128;" xml:space="preserve">
<g>
	<path style="fill:#455A64;" d="M60.64,41.1L38.95,13.88c-0.3-0.38-0.25-0.93,0.11-1.25v0c0.38-0.33,0.95-0.3,1.28,0.08L63.41,38.7
		c0.33,0.38,0.3,0.95-0.08,1.28l-1.38,1.22C61.56,41.55,60.96,41.5,60.64,41.1z"/>
	<path style="fill:#455A64;" d="M66.21,40.95l-1.24-1.1c-0.41-0.37-0.45-1-0.08-1.41l22.94-25.86c0.37-0.41,1-0.45,1.41-0.08v0
		c0.4,0.35,0.45,0.96,0.12,1.38l-21.7,26.96C67.29,41.27,66.63,41.33,66.21,40.95z"/>
	<path style="fill:#455A64;" d="M47.74,42.46c0-3.49,7.74-6.33,17.29-6.33s17.29,2.83,17.29,6.33H47.74z"/>
	<g>
		<path style="fill:#82AEC0;" d="M119.57,124H8.43C5.98,124,4,121.94,4,119.41V45.1c0-2.54,1.98-4.59,4.43-4.59h111.15
			c2.44,0,4.43,2.06,4.43,4.59v74.31C124,121.94,122.02,124,119.57,124z"/>
	</g>
	<path style="fill:#212121;" d="M116.35,119.64H11.97c-1.96,0-3.55-1.59-3.55-3.55V48.04c0-1.96,1.59-3.55,3.55-3.55h104.38
		c1.96,0,3.55,1.59,3.55,3.55v68.05C119.9,118.05,118.31,119.64,116.35,119.64z"/>
	<path style="fill:#B9E4EA;" d="M15.39,108.96l-4.8,7.55c-0.84,1.32,0.06,3.11,1.62,3.12c0.02,0,0.04,0,0.06,0
		c2.13,0,80.24,0,82.72,0l0.07,0c1.77-0.01,2.92-1.87,2.15-3.46l-3-6.18L15.39,108.96z"/>
	<path style="fill:#2F7889;stroke:#212121;stroke-width:4;stroke-miterlimit:10;" d="M95.45,105.47c-0.77,3.47-3.34,6.15-6.64,6.88
		c-5.42,1.21-15.52,2.72-32.16,2.72c-17.47,0-29.19-1.66-35.5-2.89c-3.49-0.68-6.23-3.54-6.91-7.23c-1.57-8.48-3.54-25.43,0.08-46.6
		c0.67-3.92,3.66-6.93,7.39-7.44c6.73-0.93,18.75-2.17,34.94-2.17c15.36,0,25.65,1.12,31.48,2.02c3.59,0.56,6.46,3.47,7.19,7.24
		C99.65,80.3,97.26,97.29,95.45,105.47z"/>
	<g>
		<path style="fill:#455A64;" d="M114.89,116.47H103.5c-1.16,0-2.09-0.94-2.09-2.09V90.63c0-1.16,0.94-2.09,2.09-2.09h11.39
			c1.16,0,2.09,0.94,2.09,2.09v23.75C116.98,115.53,116.05,116.47,114.89,116.47z"/>
	</g>
	<g>
		<circle style="fill:#455A64;" cx="109.2" cy="58.31" r="6.89"/>
	</g>
	<path style="fill:#82AEC0;" d="M109.2,51.98L109.2,51.98c-0.53,0-0.99,0.36-1.11,0.87l-0.9,3.7c-0.28,1.15-0.28,2.35,0,3.51
		l0.9,3.7c0.13,0.51,0.58,0.87,1.11,0.87h0c0.53,0,0.99-0.36,1.11-0.87l0.9-3.7c0.28-1.15,0.28-2.35,0-3.51l-0.9-3.7
		C110.18,52.34,109.72,51.98,109.2,51.98z"/>
	<g>
		<circle style="fill:#455A64;" cx="109.2" cy="76.12" r="6.89"/>
	</g>
	<path style="fill:#82AEC0;" d="M104.33,72.08L104.33,72.08c-0.34,0.41-0.35,0.99-0.04,1.41l2.27,3.05c0.71,0.95,1.63,1.72,2.7,2.24
		l3.42,1.66c0.47,0.23,1.04,0.11,1.38-0.3l0,0c0.34-0.41,0.35-0.99,0.04-1.41l-2.27-3.05c-0.71-0.95-1.63-1.72-2.7-2.24l-3.42-1.66
		C105.24,71.55,104.67,71.68,104.33,72.08z"/>
	<linearGradient id="SVGID_1_" gradientUnits="userSpaceOnUse" x1="29.3551" y1="35.1457" x2="28.3104" y2="73.0555">
		<stop  offset="0" style="stop-color:#FFFFFF"/>
		<stop  offset="1" style="stop-color:#FFFFFF;stop-opacity:0"/>
	</linearGradient>
	<path style="fill:url(#SVGID_1_);" d="M31.08,55.78c1.68-0.2,4.86-0.06,5.98,3.35s-1.34,4.33-2.66,5.34
		c-3.79,2.89-5.67,3.99-7.95,7.14c-1.82,2.52-5,1.73-5.95,0.07c-0.76-1.34-1.32-5.64,0.29-8.48C24.26,57.12,29.4,55.98,31.08,55.78z
		"/>
</g>
</svg>
